build/img/icons/rocks.svg

<svg width="22" height="22" viewBox="0 0 22 22" fill="none" xmlns="http://www.w3.org/2000/svg">
<g clip-path="url(#clip0)">
<path d="M5.76475 5.52946V5.60804C5.8415 5.87654 6.00613 6.11151 6.23229 6.27534C6.45844 6.43917 6.73302 6.52236 7.01207 6.51161H8.28885C8.42497 6.51474 8.55756 6.55553 8.67189 6.62946C9.58528 7.25804 10.5478 7.92589 11.6969 8.74107C11.9628 8.93171 12.2831 9.03158 12.6103 9.02589H14.5353C14.7132 9.03892 14.8918 9.01364 15.0591 8.95175C15.2264 8.88986 15.3785 8.79281 15.5051 8.66714C15.6317 8.54147 15.7299 8.39011 15.793 8.22327C15.8561 8.05643 15.8827 7.878 15.871 7.7V6.51161C15.871 5.99107 15.871 5.45089 15.871 4.92054C15.8771 4.70395 15.8354 4.48867 15.7489 4.29005C15.6623 4.09143 15.533 3.91435 15.3701 3.77143L13.8969 2.41607L11.8442 0.520536C11.6793 0.382963 11.5017 0.261291 11.3139 0.157143V0.157143L11.1076 0H11.0585H5.41118C5.23986 0.0439052 5.08005 0.124305 4.94269 0.235697C4.80533 0.347089 4.69366 0.486843 4.61531 0.645395C4.53697 0.803947 4.49381 0.977554 4.48878 1.15433C4.48375 1.33111 4.51697 1.50689 4.58618 1.66964C4.91028 2.94643 5.3326 4.18393 5.76475 5.52946ZM14.7317 7.67054C14.7317 7.91607 14.7317 7.93571 14.4665 7.93571H12.6692C12.5556 7.92546 12.4453 7.89204 12.3451 7.8375C11.2647 7.09107 10.2237 6.36429 9.39868 5.74554C9.11538 5.53215 8.77118 5.41513 8.41653 5.41161H7.05135C6.87457 5.40179 6.87457 5.37232 6.87457 5.25446C6.67814 4.60625 6.47189 3.94821 6.26564 3.29018L5.65671 1.32589C5.65671 1.21786 5.65671 1.15893 5.65671 1.12946C5.70792 1.09258 5.7706 1.07517 5.8335 1.08036H8.83885C9.46743 1.08036 10.1058 1.08036 10.7344 1.08036C10.8303 1.08748 10.9222 1.12153 10.9996 1.17857L12.9639 2.96607L13.229 3.21161L14.6826 4.54732C14.7183 4.60001 14.7412 4.66022 14.7498 4.72326C14.7583 4.7863 14.7521 4.85046 14.7317 4.91071V7.67054Z" fill="white"/>
<path d="M7.69994 17.5611C7.60173 17.2763 7.49369 16.9914 7.38566 16.7066L7.15976 16.0977C7.08874 15.894 6.96651 15.7121 6.80482 15.5693C6.64314 15.4265 6.44744 15.3278 6.23655 15.2825H6.09905L4.82227 14.9584C4.62536 14.9084 4.41969 14.9036 4.22067 14.9444C4.02166 14.9853 3.83447 15.0706 3.67316 15.1941L2.88744 15.7932L0.716908 17.3745C0.390521 17.5965 0.14294 17.9163 0.00976562 18.2879V18.3468C0.00976562 19.2013 0.00976562 20.0852 0.00976562 20.9691V21.0379C0.0828519 21.3551 0.273474 21.6328 0.543212 21.8151C0.81295 21.9973 1.14175 22.0706 1.46334 22.02H4.68477C4.9013 22.0273 5.11596 21.9776 5.30728 21.8759C5.49859 21.7742 5.65986 21.6241 5.77494 21.4405L7.56244 18.7396C7.68226 18.5704 7.75764 18.3738 7.78166 18.1679C7.80569 17.962 7.77759 17.7533 7.69994 17.5611V17.5611ZM6.60977 18.1602L5.25441 20.1932L4.91066 20.7727C4.88616 20.8093 4.85226 20.8387 4.81252 20.8577C4.77277 20.8767 4.72865 20.8846 4.68477 20.8807H1.33566C1.13923 20.8807 1.10977 20.8807 1.10977 20.6548C1.10977 19.987 1.10977 19.2995 1.10977 18.612C1.11223 18.5719 1.12313 18.5328 1.14175 18.4973C1.16036 18.4618 1.18628 18.4305 1.2178 18.4057C2.19994 17.6396 3.26066 16.8539 4.32137 16.0682C4.39862 16.0478 4.47984 16.0478 4.55709 16.0682C4.83209 16.1173 5.09727 16.1861 5.40173 16.2646L5.91244 16.3923C5.95939 16.4019 6.00271 16.4244 6.03745 16.4574C6.07218 16.4904 6.09693 16.5325 6.10887 16.5789C6.25619 16.9718 6.41334 17.4039 6.61959 17.9245C6.63703 17.9617 6.64524 18.0025 6.64353 18.0435C6.64182 18.0846 6.63024 18.1246 6.60977 18.1602V18.1602Z" fill="white"/>
<path d="M0 15.2726C0.0439429 15.4724 0.13832 15.6577 0.274139 15.8107C0.409959 15.9637 0.582696 16.0794 0.775893 16.1467C0.911269 16.1964 1.05403 16.223 1.19821 16.2253C1.50782 16.2224 1.80664 16.1112 2.04286 15.911C2.31786 15.6851 2.60268 15.4789 2.85804 15.2923L3.24107 15.0074C3.45876 14.8602 3.6244 14.648 3.71435 14.4011C3.8043 14.1542 3.81396 13.8852 3.74196 13.6324C3.50625 12.6503 3.28036 11.5699 3.04464 10.5387L2.94643 10.028C2.78929 9.28155 2.6256 8.55803 2.45536 7.85744C2.41576 7.68813 2.34226 7.5286 2.23929 7.38849C2.13632 7.24839 2.00601 7.1306 1.85625 7.04226C1.71429 6.94924 1.55472 6.88642 1.38745 6.85769C1.22018 6.82897 1.04879 6.83496 0.883929 6.87529C0.661026 6.94281 0.460838 7.07001 0.305034 7.24313C0.14923 7.41624 0.0437457 7.62868 0 7.85744H0C0 10.2637 0 12.7682 0 15.2039V15.2726ZM1.24732 7.95565C1.27754 7.96582 1.30445 7.98396 1.32519 8.00816C1.34594 8.03237 1.35976 8.06174 1.36518 8.09315C1.45357 8.45654 1.53214 8.82976 1.63036 9.22262L2.11161 11.3735C2.29821 12.2083 2.49464 13.0333 2.68125 13.8682C2.70645 13.926 2.70936 13.9911 2.68942 14.0509C2.66947 14.1108 2.62807 14.1611 2.57321 14.1923L1.38482 15.0762C1.26696 15.1744 1.22768 15.1646 1.18839 15.1449C1.14911 15.1253 1.10982 15.1449 1.10982 14.9289V10.7155C1.10982 9.89047 1.10982 9.02619 1.10982 8.18154C1.10919 8.11295 1.1261 8.04534 1.15893 7.98512C1.16814 7.98075 1.1782 7.97848 1.18839 7.97848C1.19858 7.97848 1.20865 7.98075 1.21786 7.98512L1.24732 7.95565Z" fill="white"/>
<path d="M1.47321 6.51161H3.92857C4.03941 6.52611 4.15166 6.52611 4.2625 6.51161C4.44196 6.47846 4.61177 6.40573 4.75958 6.29869C4.90739 6.19166 5.02948 6.05302 5.11696 5.89286C5.27465 5.5899 5.30641 5.23696 5.20536 4.91071C5.05804 4.41964 4.90089 3.92857 4.74375 3.42768C4.51786 2.73036 4.2625 1.93482 4.02679 1.15893C3.98483 0.894367 3.87106 0.646397 3.69787 0.442041C3.52469 0.237685 3.29874 0.0847843 3.04464 0L0.982143 0C0.745065 0.0598861 0.528604 0.182794 0.355699 0.355699C0.182794 0.528604 0.0598862 0.745065 0 0.982143L0 5.48036V5.54911C0.0752386 5.86788 0.270106 6.14555 0.544306 6.32469C0.818506 6.50384 1.15107 6.57076 1.47321 6.51161ZM1.10982 2.58304V1.32589C1.10982 1.12946 1.10982 1.10982 1.32589 1.10982H2.69107C2.82857 1.10982 2.87768 1.10982 2.90714 1.26696L3.64375 3.59464L4.14464 5.16607C4.14464 5.24464 4.14464 5.31339 4.14464 5.34286C4.08795 5.36579 4.02455 5.36579 3.96786 5.34286H1.31607C1.14911 5.34286 1.10982 5.34286 1.10982 5.12679V2.58304Z" fill="white"/>
<path d="M14.9868 2.94643L15.5467 3.45714C15.7701 3.67531 16.0692 3.79851 16.3815 3.80089C16.4871 3.80623 16.593 3.79631 16.6958 3.77143L17.0199 3.67321C18.1985 3.33929 19.6618 2.91696 21.0761 2.48482C21.3905 2.3994 21.659 2.19436 21.8242 1.91355C21.9894 1.63274 22.0382 1.29844 21.9601 0.982143C21.9086 0.741107 21.7885 0.520113 21.6142 0.345836C21.4399 0.171558 21.219 0.0514473 20.9779 0L14.7315 0C14.4899 0.0502894 14.2683 0.170019 14.0938 0.344491C13.9194 0.518962 13.7996 0.740582 13.7493 0.982143C13.7032 1.20348 13.7171 1.43314 13.7896 1.64729C13.8622 1.86144 13.9907 2.05228 14.1618 2.2L14.9868 2.94643ZM14.8297 1.17857C14.8297 1.10982 14.8886 1.09018 15.0949 1.09018H20.6243C20.8502 1.09018 20.8601 1.14911 20.8699 1.21786C20.8797 1.28661 20.8699 1.36518 20.6735 1.43393L20.3199 1.54196L16.5485 2.68125C16.4936 2.70231 16.4337 2.70702 16.3762 2.69482C16.3187 2.68262 16.266 2.65403 16.2243 2.6125C15.8904 2.27857 15.5368 1.96429 15.2422 1.63036L14.9967 1.40446C14.8002 1.28661 14.8101 1.25714 14.8297 1.19821V1.17857Z" fill="white"/>
<path d="M16.3031 9.35994H12.7674C12.5789 9.35417 12.3917 9.39297 12.2211 9.47318C12.0504 9.55339 11.9011 9.67275 11.7852 9.82154L7.67988 14.7814C7.53265 14.9494 7.43531 15.1552 7.39887 15.3756C7.36242 15.596 7.38832 15.8222 7.47363 16.0287L7.58167 16.3233C7.68971 16.6278 7.80756 16.9224 7.9156 17.2171C8.00349 17.4642 8.16819 17.6766 8.38557 17.8233C8.60296 17.97 8.86161 18.0432 9.12363 18.0323H12.1683C12.3511 18.0382 12.5332 18.0054 12.7025 17.936C12.8717 17.8666 13.0244 17.7622 13.1504 17.6296C14.2897 16.5001 15.321 15.4689 16.3522 14.418C16.5193 14.2539 16.6441 14.0517 16.7156 13.8287C17.0004 12.9153 17.2558 11.9724 17.5111 11.0689V10.9707C17.5724 10.7785 17.5883 10.5747 17.5576 10.3753C17.527 10.176 17.4505 9.98643 17.3343 9.82154C17.2075 9.67286 17.0492 9.55429 16.8708 9.47444C16.6924 9.3946 16.4985 9.35548 16.3031 9.35994V9.35994ZM11.0585 16.9224H9.16292C9.03524 16.9224 8.98613 16.9224 8.94685 16.7849C8.82899 16.4314 8.69149 16.068 8.54417 15.7046C8.52275 15.661 8.51596 15.6116 8.52481 15.5639C8.53365 15.5161 8.55767 15.4724 8.59328 15.4394L12.571 10.6073C12.6012 10.5627 12.6423 10.5267 12.6905 10.5026C12.7386 10.4785 12.7922 10.4672 12.846 10.4698H16.2245C16.2983 10.4482 16.3767 10.4482 16.4504 10.4698C16.4728 10.5467 16.4728 10.6285 16.4504 10.7055L16.254 11.3733C16.087 11.9724 15.8906 12.6796 15.6843 13.3376C15.6556 13.4359 15.6053 13.5265 15.537 13.6028C14.4174 14.7323 13.3861 15.7537 12.404 16.726C12.3259 16.79 12.2297 16.8278 12.129 16.834C11.7852 16.9323 11.3629 16.9224 11.0585 16.9224V16.9224Z" fill="white"/>
<path d="M11.2658 9.31113C11.2377 9.13473 11.1735 8.96603 11.0772 8.81561C10.9808 8.66519 10.8544 8.5363 10.7059 8.43703L9.7238 7.76917L8.83987 7.10131C8.57103 6.93028 8.25399 6.85102 7.9363 6.87542H4.19433C3.99558 6.86727 3.79759 6.90461 3.61547 6.98461C3.43335 7.06461 3.2719 7.18515 3.14344 7.33703C3.03669 7.48759 2.96385 7.6595 2.92994 7.84092C2.89603 8.02235 2.90185 8.20897 2.94701 8.38792C3.34969 10.1656 3.76219 11.9924 4.15505 13.7013C4.19071 13.938 4.29698 14.1583 4.45995 14.3336C4.62292 14.5088 4.83501 14.6307 5.06844 14.6835L6.22737 14.9781C6.33821 14.9925 6.45045 14.9925 6.5613 14.9781C6.75081 14.9778 6.93775 14.9342 7.10793 14.8509C7.27811 14.7675 7.42705 14.6464 7.54344 14.4968C8.66308 13.1317 9.83183 11.7272 10.9908 10.3031C11.1045 10.1668 11.1879 10.0079 11.2354 9.83681C11.2828 9.66574 11.2932 9.48653 11.2658 9.31113V9.31113ZM10.1658 9.44863C10.1658 9.44863 10.1658 9.50756 10.0479 9.64506L8.6238 11.3736L6.65951 13.7308C6.5613 13.8486 6.49255 13.8781 6.36487 13.8388L5.38273 13.5835C5.33756 13.5809 5.29508 13.5612 5.26402 13.5283C5.23296 13.4954 5.21569 13.4519 5.21576 13.4067C4.83273 11.737 4.45951 10.0674 4.03719 8.22096C4.03719 8.05399 4.03719 8.00488 4.03719 8.00488C4.03719 8.00488 4.03719 7.95578 4.27291 7.95578H7.85773C7.9688 7.95451 8.07789 7.98519 8.17201 8.04417L9.43898 8.91828L9.96933 9.29149C10.1461 9.39953 10.1658 9.44863 10.1658 9.44863V9.44863Z" fill="white"/>
<path d="M19.9188 17.6195L19.4867 17.1874L17.6795 15.3999C17.5643 15.2684 17.4223 15.1631 17.2631 15.0909C17.1039 15.0188 16.9311 14.9814 16.7563 14.9814C16.5815 14.9814 16.4087 15.0188 16.2495 15.0909C16.0903 15.1631 15.9483 15.2684 15.8331 15.3999L14.851 16.382L13.3581 17.8749C13.2287 18.0029 13.1271 18.1561 13.0595 18.3251C12.9919 18.494 12.9598 18.6751 12.9653 18.857V20.6249C12.9502 20.805 12.9747 20.9861 13.0371 21.1557C13.0996 21.3253 13.1984 21.4791 13.3266 21.6065C13.4548 21.7338 13.6094 21.8314 13.7794 21.8926C13.9495 21.9538 14.1308 21.977 14.3108 21.9606H20.7045C20.8783 21.9707 21.0522 21.9438 21.2147 21.8816C21.3773 21.8194 21.5247 21.7233 21.6473 21.5998C21.7699 21.4763 21.8648 21.3281 21.9258 21.1651C21.9868 21.0021 22.0124 20.828 22.001 20.6543V20.2418C22.0088 20.0596 21.9779 19.8779 21.9101 19.7085C21.8424 19.5392 21.7395 19.3862 21.6081 19.2597L19.9188 17.6195ZM20.901 20.3695C20.901 20.8802 20.901 20.8802 20.3706 20.8802H14.3403C14.0849 20.8802 14.0751 20.8802 14.0751 20.6052V20.0651C14.0751 19.682 14.0751 19.2793 14.0751 18.8865C14.0777 18.785 14.1159 18.6876 14.1831 18.6115L16.0492 16.7356L16.5894 16.1954C16.6581 16.1267 16.7072 16.0874 16.7465 16.0874C16.7858 16.0874 16.8349 16.0874 16.9135 16.2052L20.734 20.016C20.7871 20.0575 20.8292 20.1115 20.8566 20.1732C20.884 20.2348 20.8959 20.3022 20.8912 20.3695H20.901Z" fill="white"/>
<path d="M17.5416 14.7914L18.897 16.1467L19.8005 17.0601C19.925 17.1975 20.0764 17.3076 20.2455 17.3837C20.4145 17.4597 20.5974 17.5 20.7827 17.5021C20.945 17.5027 21.1056 17.4693 21.2541 17.4039C21.4972 17.3084 21.7035 17.1379 21.8431 16.9171C21.9826 16.6963 22.0481 16.4368 22.03 16.1762V10.5191C22.0387 10.3268 22.0054 10.135 21.9324 9.95692C21.8595 9.77884 21.7487 9.61876 21.6077 9.48782C21.4613 9.36 21.2888 9.26565 21.1022 9.21137C20.9156 9.15709 20.7194 9.14418 20.5273 9.17353H20.2916L19.3095 9.26193C19.0317 9.27092 18.7648 9.37244 18.5513 9.55037C18.3378 9.7283 18.1898 9.97245 18.1309 10.2441L17.8461 11.2262C17.6398 11.953 17.4336 12.67 17.2273 13.3673C17.1308 13.6088 17.1092 13.8737 17.1652 14.1277C17.2213 14.3817 17.3524 14.6129 17.5416 14.7914V14.7914ZM20.7041 10.2735C20.8023 10.2735 20.8318 10.2735 20.8416 10.2735C20.8514 10.2735 20.8416 10.2735 20.8416 10.5092V16.1173C20.8416 16.2941 20.8416 16.3235 20.7729 16.3432C20.7041 16.3628 20.6746 16.3432 20.547 16.2351L19.7907 15.4789C19.3389 15.0173 18.8086 14.4967 18.2782 13.9664C18.2338 13.9333 18.2019 13.8862 18.1876 13.8327C18.1734 13.7793 18.1776 13.7225 18.1996 13.6717C18.4943 12.6307 18.7987 11.5896 19.0934 10.5485C19.0934 10.411 19.1818 10.3619 19.3291 10.3619L20.3112 10.2735H20.5764H20.7041Z" fill="white"/>
<path d="M21.4998 3.23172C21.3363 3.1166 21.1479 3.04152 20.9501 3.01252C20.7522 2.98352 20.5502 3.00141 20.3605 3.06476L17.7677 3.83083L17.1686 4.00761C16.8767 4.06649 16.6161 4.22944 16.4354 4.46614C16.2547 4.70283 16.1662 4.99713 16.1864 5.29422V7.73976C16.1838 7.92129 16.2172 8.10155 16.2846 8.27012C16.352 8.43869 16.4522 8.59224 16.5793 8.7219C16.8148 8.93736 17.1244 9.05348 17.4436 9.04601H17.5123C18.6221 9.04601 19.7418 8.91833 20.8418 8.82011C21.0049 8.81403 21.165 8.77497 21.3126 8.70528C21.4602 8.63559 21.5921 8.53673 21.7004 8.41465C21.8087 8.29257 21.8911 8.14982 21.9428 7.995C21.9944 7.84018 22.0141 7.67651 22.0007 7.51386V4.29244C22.0065 4.0887 21.9641 3.88648 21.8771 3.70219C21.7901 3.51789 21.6608 3.35671 21.4998 3.23172V3.23172ZM20.8909 7.49422C20.8909 7.68083 20.8909 7.70047 20.7239 7.71029L17.6203 7.91654C17.4436 7.91654 17.3945 7.91654 17.3846 7.91654C17.3748 7.91654 17.3846 7.91654 17.3846 7.67101V5.30404C17.3846 5.11744 17.3846 5.11744 17.5712 5.05851L20.6257 4.13529H20.773H20.8319C20.8732 4.19931 20.8906 4.27581 20.8811 4.35136V7.49422H20.8909Z" fill="white"/>
<path d="M11.3635 18.3564C10.5385 18.3564 9.73313 18.3564 8.90813 18.3564C8.69273 18.3478 8.47896 18.397 8.28898 18.4989C8.09901 18.6008 7.93977 18.7517 7.82777 18.9359L7.16974 19.918L7.09117 20.0261C6.95751 20.2167 6.87939 20.4406 6.86552 20.673C6.85164 20.9054 6.90256 21.137 7.0126 21.3421C7.12349 21.5476 7.29023 21.7175 7.49356 21.8322C7.69689 21.9469 7.92853 22.0017 8.1617 21.9904H11.393C11.5575 21.993 11.7209 21.9626 11.8734 21.9008C12.0259 21.8391 12.1645 21.7473 12.2809 21.6309C12.3972 21.5146 12.489 21.376 12.5507 21.2235C12.6125 21.071 12.6429 20.9076 12.6403 20.743V19.643C12.6471 19.4731 12.6188 19.3035 12.5572 19.145C12.4956 18.9865 12.402 18.8423 12.2822 18.7216C12.1624 18.6009 12.0189 18.5061 11.8609 18.4433C11.7028 18.3805 11.5335 18.3509 11.3635 18.3564V18.3564ZM9.74295 19.4662H11.334C11.501 19.4662 11.5305 19.4663 11.5305 19.6627V20.6448C11.5305 20.8707 11.5305 20.8707 11.3046 20.8707H9.25188C8.89831 20.8707 8.54474 20.8707 8.20099 20.8707C8.1189 20.8675 8.04134 20.8322 7.98492 20.7725C7.98492 20.7725 7.98492 20.6743 8.04385 20.6154C8.27956 20.2618 8.5251 19.8984 8.73135 19.5743C8.75182 19.5385 8.78212 19.5093 8.81867 19.4901C8.85522 19.471 8.89649 19.4627 8.9376 19.4662H9.74295Z" fill="white"/>
</g>
<defs>
<clipPath id="clip0">
<rect width="22" height="22" fill="white"/>
</clipPath>
</defs>
</svg>

<svg width="22" height="22" fill="none" xmlns="http://www.w3.org/2000/svg">
    <g clip-path="url(#a)" fill="#fff">
        <path d="M5.765 5.53v.078a1.247 1.247 0 0 0 1.247.904H8.29a.737.737 0 0 1 .383.117c.913.629 1.876 1.297 3.025 2.112.266.19.586.29.913.285h1.925A1.247 1.247 0 0 0 15.871 7.7V4.921a1.475 1.475 0 0 0-.5-1.15l-1.474-1.355L11.844.521a3.408 3.408 0 0 0-.53-.364L11.108 0H5.41a1.228 1.228 0 0 0-.825 1.67c.324 1.276.747 2.514 1.179 3.86zm8.967 2.14c0 .246 0 .266-.265.266h-1.798a.835.835 0 0 1-.324-.098A99.183 99.183 0 0 1 9.4 5.745a1.66 1.66 0 0 0-.982-.334H7.05c-.176-.01-.176-.04-.176-.158-.197-.648-.403-1.306-.61-1.964l-.608-1.964v-.197a.265.265 0 0 1 .176-.049h4.901A.51.51 0 0 1 11 1.18l1.964 1.787.265.246 1.454 1.335a.413.413 0 0 1 .049.364v2.76zM7.7 17.561c-.098-.285-.206-.57-.314-.854l-.226-.61a1.257 1.257 0 0 0-.923-.815h-.138l-1.277-.324a1.346 1.346 0 0 0-1.149.236l-.786.6-2.17 1.58a1.866 1.866 0 0 0-.707.914v2.75a1.287 1.287 0 0 0 1.453.982h3.222a1.237 1.237 0 0 0 1.09-.58l1.787-2.7A1.237 1.237 0 0 0 7.7 17.56zm-1.09.6-1.356 2.032-.343.58a.246.246 0 0 1-.226.108h-3.35c-.196 0-.225 0-.225-.226v-2.043a.284.284 0 0 1 .108-.206c.982-.766 2.043-1.552 3.103-2.338a.462.462 0 0 1 .236 0c.275.05.54.118.845.197l.51.127a.256.256 0 0 1 .197.187c.147.393.304.825.51 1.345a.255.255 0 0 1-.01.236zM0 15.273a1.198 1.198 0 0 0 .776.874c.135.05.278.076.422.078.31-.003.609-.114.845-.314.275-.226.56-.432.815-.619l.383-.285a1.247 1.247 0 0 0 .501-1.375c-.236-.982-.462-2.062-.697-3.093l-.099-.511c-.157-.746-.32-1.47-.49-2.17a1.287 1.287 0 0 0-.6-.816 1.238 1.238 0 0 0-.972-.167A1.277 1.277 0 0 0 0 7.857v7.416zm1.247-7.317a.177.177 0 0 1 .118.137c.089.364.167.737.265 1.13l.482 2.15c.186.835.383 1.66.57 2.495a.255.255 0 0 1-.109.324l-1.188.884c-.118.098-.157.089-.197.069-.039-.02-.078 0-.078-.216V8.182c0-.07.016-.137.049-.197a.069.069 0 0 1 .059 0l.03-.03zM1.473 6.512H3.93c.11.014.223.014.334 0a1.228 1.228 0 0 0 .854-.62c.158-.302.19-.655.088-.981-.147-.491-.304-.982-.461-1.483a131.78 131.78 0 0 1-.717-2.27A1.463 1.463 0 0 0 3.045 0H.982A1.355 1.355 0 0 0 0 .982V5.55a1.277 1.277 0 0 0 1.473.962zM1.11 2.583V1.326c0-.197 0-.216.216-.216H2.69c.138 0 .187 0 .216.157l.737 2.328.5 1.571v.177a.236.236 0 0 1-.176 0H1.316c-.167 0-.206 0-.206-.216V2.583zM14.987 2.946l.56.511c.223.218.522.342.834.344a1.1 1.1 0 0 0 .315-.03l.324-.098c1.178-.334 2.642-.756 4.056-1.188A1.247 1.247 0 0 0 21.96.982 1.277 1.277 0 0 0 20.978 0H14.73a1.267 1.267 0 0 0-.57 2.2l.826.746zM14.83 1.18c0-.07.059-.089.265-.089h5.53c.225 0 .235.06.245.128.01.069 0 .147-.197.216l-.353.108-3.771 1.14a.305.305 0 0 1-.325-.07c-.334-.333-.687-.648-.982-.982l-.245-.226c-.197-.117-.187-.147-.167-.206v-.02zM16.303 9.36h-3.536a1.198 1.198 0 0 0-.982.462l-4.105 4.96a1.198 1.198 0 0 0-.206 1.247l.108.294c.108.305.226.6.334.894a1.228 1.228 0 0 0 1.208.815h3.044a1.298 1.298 0 0 0 .982-.402c1.14-1.13 2.171-2.161 3.202-3.212.167-.164.292-.366.364-.59.284-.913.54-1.856.795-2.76v-.097a1.306 1.306 0 0 0-.177-1.15 1.315 1.315 0 0 0-1.03-.461zm-5.245 7.562H9.164c-.128 0-.177 0-.216-.137a18.35 18.35 0 0 0-.403-1.08.226.226 0 0 1 .05-.266l3.977-4.832a.314.314 0 0 1 .275-.137h3.378a.402.402 0 0 1 .226 0 .422.422 0 0 1 0 .236l-.196.667c-.167.6-.363 1.307-.57 1.965a.686.686 0 0 1-.147.265c-1.12 1.13-2.15 2.15-3.133 3.123a.48.48 0 0 1-.275.108c-.344.098-.766.088-1.07.088z"/>
        <path d="M11.266 9.311a1.298 1.298 0 0 0-.56-.874l-.982-.668-.884-.668a1.473 1.473 0 0 0-.904-.226H4.194a1.306 1.306 0 0 0-1.05.462 1.277 1.277 0 0 0-.197 1.05c.403 1.779.815 3.605 1.208 5.314a1.189 1.189 0 0 0 .913.982l1.16.295c.11.014.222.014.333 0a1.248 1.248 0 0 0 .982-.481c1.12-1.365 2.289-2.77 3.448-4.194a1.25 1.25 0 0 0 .275-.992zm-1.1.138s0 .059-.118.196l-1.424 1.729L6.66 13.73c-.099.118-.167.147-.295.108l-.982-.255a.177.177 0 0 1-.167-.177c-.383-1.67-.756-3.34-1.179-5.186v-.216s0-.05.236-.05h3.585a.58.58 0 0 1 .314.09l1.267.873.53.373c.177.109.197.158.197.158zM19.919 17.62l-.432-.433L17.68 15.4a1.228 1.228 0 0 0-1.847 0l-.982.982-1.493 1.493a1.326 1.326 0 0 0-.393.982v1.768a1.237 1.237 0 0 0 1.346 1.336h6.393a1.228 1.228 0 0 0 1.297-1.307v-.412a1.287 1.287 0 0 0-.393-.982l-1.69-1.64zm.982 2.75c0 .51 0 .51-.53.51h-6.03c-.256 0-.266 0-.266-.275v-1.718a.432.432 0 0 1 .108-.276l1.866-1.875.54-.54c.07-.07.118-.109.158-.109.039 0 .088 0 .166.118l3.821 3.811a.411.411 0 0 1 .157.354h.01zM17.542 14.791l1.355 1.356.904.913a1.345 1.345 0 0 0 .982.442c.162 0 .323-.033.471-.098a1.228 1.228 0 0 0 .776-1.228V10.52a1.324 1.324 0 0 0-.422-1.031 1.336 1.336 0 0 0-1.08-.314h-.236l-.983.088a1.247 1.247 0 0 0-1.178.982l-.285.982c-.206.727-.412 1.444-.619 2.141a1.297 1.297 0 0 0 .315 1.424zm3.162-4.518h.138c.01 0 0 0 0 .236v5.608c0 .177 0 .206-.07.226-.068.02-.097 0-.225-.108l-.756-.756c-.452-.462-.982-.982-1.513-1.513a.246.246 0 0 1-.078-.294c.294-1.041.599-2.082.893-3.123 0-.138.089-.187.236-.187l.982-.088h.393zM21.5 3.232a1.277 1.277 0 0 0-1.14-.167l-2.592.766-.6.177a1.228 1.228 0 0 0-.982 1.286V7.74a1.376 1.376 0 0 0 .393.982c.236.215.545.331.865.324h.068c1.11 0 2.23-.128 3.33-.226A1.208 1.208 0 0 0 22 7.514V4.292a1.296 1.296 0 0 0-.501-1.06zm-.61 4.262c0 .187 0 .206-.166.216l-3.104.207h-.235c-.01 0 0 0 0-.246V5.304c0-.187 0-.187.186-.245l3.055-.924h.206c.041.064.059.14.05.216v3.143h.009zM11.364 18.356H8.908a1.208 1.208 0 0 0-1.08.58l-.658.982-.079.108a1.257 1.257 0 0 0-.078 1.316 1.237 1.237 0 0 0 1.149.648h3.231a1.227 1.227 0 0 0 1.247-1.247v-1.1a1.238 1.238 0 0 0-1.277-1.287zm-1.621 1.11h1.591c.167 0 .197 0 .197.197v.982c0 .226 0 .226-.226.226H8.2a.314.314 0 0 1-.216-.098s0-.099.059-.158c.236-.353.481-.717.687-1.04a.217.217 0 0 1 .207-.109h.805z"/>
    </g>
    <defs>
        <clipPath id="a">
            <path fill="#fff" d="M0 0h22v22H0z"/>
        </clipPath>
    </defs>
</svg>
